X:1
T:Coloma, 98.98 D
T:Coloma, 98.98 D
T:Daniel Brink Towner, 1899
T:Public Domain Courtesy of the Cyber Hymnal™
C:Daniel Brink Towner, 1899
Z:Public Domain
Z:Courtesy of the Cyber Hymnal™
%%score ( 1 2 ) ( 3 4 )
L:1/8
Q:1/4=90
M:6/8
K:D
V:1 treble 
V:2 treble 
V:3 bass 
V:4 bass 
V:1
 [FA] | [FA][^E^G][FA] [GB][Ac][Bd] | [FA]3 [DF]2 [FA] | [FA][GB][FA] [CE][DF][EG] | %4
 [DF]3- [DF]2 [FA] | [FA][E^G][FA] [GB][Ac][Bd] | [FA]3 [DF]2 [DF] | [DE][D^G][CA] [DB][Ec]>[DB] | %8
 [CA]3- [CA]2 [CA] | [CA][EG][EG] [EG][Gc][GB] | [GB]3 [FA]2 [FA] | [FA][EG][EG] [EG][Gc][GB] | %12
 [FA]3- [FA]2 [FA] | [Fd][Fc][Fd] [Ge][Bd][GB] | [FA]3 !fermata![Fd]2 [^EB] | %15
 [FB][FA][DF] [CA][CG][CE] | D3- D2 |] %17
V:2
 x | x6 | x6 | x6 | x6 | x6 | x6 | x6 | x6 | x6 | x6 | x6 | x6 | x6 | x6 | x6 | D3- D2 |] %17
V:3
 [D,D] | [D,D][D,D][D,D] [G,,D][G,,D][G,,D] | [D,D]3 [D,A,]2 [D,D] | %3
 [A,,D][A,,D][A,,A,] [A,,A,][A,,A,][A,,A,] | [D,A,]3- [D,A,]2 [D,D] | %5
 [D,D][D,D][D,D] [G,,D][G,,D][G,,D] | [D,D]3 [D,A,]2 [D,A,] | [E,^G,][E,B,][E,A,] [E,G,][E,G,]>E, | %8
 [A,,E,]3- [A,,E,]2 [A,,E,] | [A,,E,][A,,A,][A,,C] [A,,C][A,,E][A,,C] | [D,D]3 [D,D]2 [D,D] | %11
 [A,,D][A,,C][A,,C] [A,,C][A,,E][A,,C] | [D,D]3- [D,D]2 [D,D] | %13
 [D,A,][D,A,][D,A,] [G,B,][G,D][G,D] | [D,D]3 !fermata![D,A,]2 [D,^G,] | %15
 [D,A,][D,D][D,A,] [A,,G,][A,,E,][A,,G,] | [D,F,]3- [D,F,]2 |] %17
V:4
 x | x6 | x6 | x6 | x6 | x6 | x6 | x11/2 E,/ | x6 | x6 | x6 | x6 | x6 | x6 | x6 | x6 | x5 |] %17

